X: 9
T: Din Tarrant's
D:Julia and Billy Clifford, "Ceol as Sliabh Luachra"
R:polka
M:2/4
L:1/8
K:D
| a>f df | Ad e2 | e/f/e/d/ cA | Bc df |
| a>f df | A/B/c/d/ ee/f/ | g/f/e/d/ cA |1 Bc d2 :|2  Bc dB/c/ |
|: dB fB | dB fe/d/ | cA eA | BA ce |
| fb ba | fb ba | f/g/f/e/ cA |1 Bc dB/c/ :|2  Bc d2 ||
%%sep 1 1 500
